Papirus/64x64/apps/clamav.svg

<?xml version="1.0" encoding="UTF-8" standalone="no"?>
<svg xmlns="http://www.w3.org/2000/svg" height="64" width="64" version="1">
 <path style="opacity:0.2" d="m 12.042983,7.3592226 a 19.999917,20.513915 0 0 0 -0.043,1.1249953 19.999917,20.513915 0 0 0 2.581989,10.0389581 c 0.241999,-0.255599 0.469798,-0.524798 0.722597,-0.769397 A 19.999917,20.513915 0 0 1 12.042983,7.3592226 Z M 51.954817,7.5702217 A 19.999917,20.513915 0 0 1 48.700831,17.757779 c 0.249459,0.241579 0.472098,0.509618 0.710937,0.761717 a 19.999917,20.513915 0 0 0 2.589989,-10.0353581 19.999917,20.513915 0 0 0 -0.046,-0.9139962 z M 8.0509994,36.004104 c -0.0136,0.331998 -0.0508,0.659997 -0.0508,0.995996 C 8.0001996,50.296044 18.704155,61 32.0001,61 45.296045,61 56,50.296044 56,37.0001 56,36.663661 55.962861,36.336942 55.949221,36.004004 55.421223,48.825951 44.957266,58.999908 31.99932,58.999908 19.042374,58.999908 8.5774172,48.825951 8.0494194,36.004004 Z"/>
 <path style="fill:#e03c3b" d="M 51.707818,4.0002407 A 19.999917,20.513915 0 0 1 45.249845,15.976791 C 41.455861,13.468201 36.90788,12.000208 31.9999,12.000208 c -4.90998,0 -9.463961,1.468993 -13.257745,3.980383 A 19.999917,20.513915 0 0 1 12.292982,4.1330401 19.999917,20.513915 0 0 0 11.999983,7.4846262 19.999917,20.513915 0 0 0 15.304569,18.754179 c -4.501381,4.357982 -7.3045694,10.455957 -7.3045694,17.245929 0,13.295945 10.7039554,23.9999 23.9999004,23.9999 13.295945,0 23.9999,-10.703955 23.9999,-23.9999 0,-6.787972 -2.801988,-12.883947 -7.299969,-17.242129 A 19.999917,20.513915 0 0 0 51.999817,7.4846262 19.999917,20.513915 0 0 0 51.707818,4.0002407 Z"/>
 <g style="opacity:0.2" transform="matrix(1.9999917,0,0,1.9999917,3.2800415e-5,0.999349)">
  <path d="M 15,21 C 13.816,22.913 11.194,23.568 9.1441,22.463 7.0938,21.359 6.3913,18.913 7.575,17 Z"/>
  <path d="m 17,21 c 1.1838,1.913 3.8055,2.5684 5.8559,1.4639 2.05,-1.105 2.753,-3.551 1.569,-5.464 z"/>
 </g>
 <path style="fill:#ffffff" d="M 29.999908,42.000083 C 27.631918,45.826067 22.38794,47.136062 18.288157,44.926071 14.187574,42.71808 12.78258,37.8261 15.14997,34.000116 Z"/>
 <path style="fill:#2c2c2c" d="m 22.109375,37.75 0,0.25 c -0.431798,2.20511 0.41881,4.84042 2.611328,7.742188 0.02519,-0.0061 0.05105,-0.0093 0.07617,-0.01563 -1.070291,-2.042924 -0.895405,-4.320284 0.146484,-6.451171 L 22.109375,37.75 Z"/>
 <path style="opacity:0.2;fill:#ffffff" d="M 51.707031 4 A 19.999917 20.513915 0 0 1 45.25 15.976562 C 41.456016 13.467973 36.90798 12 32 12 C 27.09002 12 22.535971 13.469079 18.742188 15.980469 A 19.999917 20.513915 0 0 1 12.292969 4.1328125 A 19.999917 20.513915 0 0 0 12 7.484375 A 19.999917 20.513915 0 0 0 12.021484 7.9238281 A 19.999917 20.513915 0 0 1 12.292969 5.1328125 A 19.999917 20.513915 0 0 0 18.742188 16.980469 C 22.535971 14.469079 27.09002 13 32 13 C 36.90798 13 41.456016 14.467973 45.25 16.976562 A 19.999917 20.513915 0 0 0 51.707031 5 A 19.999917 20.513915 0 0 1 51.976562 8.0195312 A 19.999917 20.513915 0 0 0 52 7.484375 A 19.999917 20.513915 0 0 0 51.707031 4 z M 49.410156 19.519531 A 19.999917 20.513915 0 0 1 48.699219 20.757812 C 48.823252 20.877959 48.94112 21.004174 49.0625 21.126953 A 19.999917 20.513915 0 0 0 49.410156 20.519531 C 53.334583 24.662367 55.81383 30.186588 55.984375 36.326172 C 55.989985 36.217579 56 36.109802 56 36 C 56 29.590027 53.478139 23.813913 49.410156 19.519531 z M 14.582031 19.523438 C 10.516848 23.818019 8 29.592026 8 36 C 8 36.109802 8.0098794 36.217579 8.015625 36.326172 C 8.1858247 30.188514 10.660306 24.666467 14.582031 20.523438 A 19.999917 20.513915 0 0 0 14.9375 21.126953 C 15.060215 21.002833 15.179261 20.875334 15.304688 20.753906 A 19.999917 20.513915 0 0 1 14.582031 19.523438 z"/>
 <path d="m 34,42.000016 c 2.36799,3.825984 7.611968,5.135979 11.711751,2.925988 4.100583,-2.207991 5.505577,-7.099971 3.138187,-10.925955 z" style="fill:#ffffff"/>
 <path d="m 41.890533,37.749933 0,0.25 c 0.431798,2.20511 -0.41881,4.84042 -2.611328,7.742188 -0.02519,-0.0061 -0.05105,-0.0093 -0.07617,-0.01563 1.070291,-2.042924 0.895405,-4.320284 -0.146484,-6.451171 l 2.833982,-1.525387 z" style="fill:#2c2c2c"/>
</svg>

<?xml version="1.0" encoding="UTF-8" standalone="no"?>
<svg xmlns="http://www.w3.org/2000/svg" height="64" width="64" version="1">
 <path style="fill:#e03c3b" d="m51.708 4.0002a20 20.514 0 0 1 -6.458 11.977c-3.794-2.509-8.342-3.977-13.25-3.977-4.91 0-9.464 1.469-13.258 3.9804a20 20.514 0 0 1 -6.449 -11.847 20 20.514 0 0 0 -.293 3.3516 20 20.514 0 0 0 3.305 11.269c-4.5014 4.358-7.3046 10.456-7.3046 17.246 0 13.296 10.704 24 24 24s24-10.704 24-24c0-6.788-2.802-12.884-7.3-17.242a20 20.514 0 0 0 3.3 -11.273 20 20.514 0 0 0 -.292 -3.4848z"/>
 <g style="opacity:.2" transform="matrix(2 0 0 2 0.0000328 .99935)">
  <path d="m15 21c-1.184 1.913-3.806 2.568-5.8559 1.463-2.0503-1.104-2.7528-3.55-1.5691-5.463z"/>
  <path d="m17 21c1.1838 1.913 3.8055 2.5684 5.8559 1.4639 2.05-1.105 2.753-3.551 1.569-5.464z"/>
 </g>
 <path style="fill:#ffffff" d="m30 42c-2.368 3.826-7.612 5.136-11.712 2.926-4.1-2.208-5.505-7.1-3.138-10.926z"/>
 <path style="fill:#2c2c2c" d="m22.109 37.75v.25c-.43180 2.2051.41881 4.8404 2.6113 7.7422.02519-.0061.05105-.0093.07617-.01563-1.0703-2.0429-.89540-4.3203.14648-6.4512l-2.834-1.525z"/>
 <path style="fill:#ffffff" d="m34 42c2.368 3.826 7.612 5.136 11.712 2.926 4.1006-2.208 5.5056-7.1 3.1382-10.926z"/>
 <path style="fill:#2c2c2c" d="m41.891 37.75v.25c.43180 2.2051-.41881 4.8404-2.6113 7.7422-.02519-.0061-.05105-.0093-.07617-.01563 1.0703-2.0429.89540-4.3203-.14648-6.4512l2.834-1.5254z"/>
 <path style="opacity:.2;fill:#ffffff" d="m51.707 4a20 20.514 0 0 1 -6.457 11.977c-3.794-2.509-8.342-3.977-13.25-3.977-4.91 0-9.464 1.469-13.258 3.98a20 20.514 0 0 1 -6.449 -11.847 20 20.514 0 0 0 -.293 3.3514 20 20.514 0 0 0 .021 .4375 20 20.514 0 0 1 .272 -2.7891 20 20.514 0 0 0 6.449 11.847c3.794-2.511 8.348-3.98 13.258-3.98 4.908 0 9.456 1.468 13.25 3.977a20 20.514 0 0 0 6.457 -11.977 20 20.514 0 0 1 .272 3.0332 20 20.514 0 0 0 .021 -.5488 20 20.514 0 0 0 -.293 -3.4844zm-36.769 15.127c-4.284 4.33-6.938 10.272-6.938 16.873 0 .171.0101.340.0137.510.1318-6.593 2.8983-12.504 7.2913-16.756a20 20.514 0 0 1 -.367 -.627zm34.124 0a20 20.514 0 0 1 -.363 .631c4.389 4.252 7.155 10.162 7.287 16.752.004-.170.014-.339.014-.510 0-6.601-2.655-12.543-6.938-16.873z"/>
 <path style="opacity:.2" d="m12.021 7.9219a20 20.514 0 0 0 -.021 .5625 20 20.514 0 0 0 2.938 10.643c.12264-.12398.24189-.25174.36719-.37305a20 20.514 0 0 1 -3.284 -10.832zm39.958.1113a20 20.514 0 0 1 -3.28 10.725c.12388.12003 0.242.24650.36328.36914a20 20.514 0 0 0 2.938 -10.643 20 20.514 0 0 0 -.021 -.4508zm-43.965 28.477c-.0033.164-.0137.325-.0137.490 0 13.296 10.704 24 24 24s24-10.704 24-24c0-.165-.010-.326-.014-.490-.270 13.057-10.861 23.49-23.986 23.49s-23.716-10.433-23.986-23.49z"/>
</svg>
